X:1
T:Brighton Camp (The Girl I Left Behind Me)
L:1/8
Q:1/4=110
M:2/4
K:G
ed BA | BG E>F | GG G/A/B/c/ | d2 B g/f/ |
ed BA | BG E>G | F/G/A DE/F/ | G2 G B ::
d3 z | B3 z | c3 z | d3 z |
z4 | z4 | z4 | z4 ::
